images/arrow-down.svg

<svg xmlns="http://www.w3.org/2000/svg" xmlns:xlink="http://www.w3.org/1999/xlink" width="21" zoomAndPan="magnify" viewBox="0 0 15.75 9" height="12" preserveAspectRatio="xMidYMid meet" version="1.0"><defs><clipPath id="c313743fea"><path d="M 0.675781 0 L 14.851562 0 L 14.851562 8 L 0.675781 8 Z M 0.675781 0 " clip-rule="nonzero"/></clipPath></defs><g clip-path="url(#c313743fea)"><path fill="#ffffff" d="M 0.9375 0.289062 C 0.75 0.464844 0.675781 0.65625 0.675781 0.9375 C 0.675781 1.3125 0.8125 1.472656 3.96875 4.621094 C 7.210938 7.871094 7.265625 7.925781 7.683594 7.925781 C 8.101562 7.925781 8.152344 7.871094 11.398438 4.621094 C 14.554688 1.472656 14.691406 1.3125 14.691406 0.9375 C 14.691406 0.394531 14.324219 0.0273438 13.78125 0.0273438 C 13.40625 0.0273438 13.257812 0.152344 10.539062 2.871094 L 7.683594 5.726562 L 4.828125 2.871094 C 2.109375 0.152344 1.960938 0.0273438 1.585938 0.0273438 C 1.300781 0.0273438 1.113281 0.101562 0.9375 0.289062 Z M 0.9375 0.289062 " fill-opacity="1" fill-rule="nonzero"/><path fill="#ffffff" d="M 0.9375 0.289062 C 0.75 0.464844 0.675781 0.65625 0.675781 0.9375 C 0.675781 1.3125 0.8125 1.472656 3.96875 4.621094 C 7.210938 7.871094 7.265625 7.925781 7.683594 7.925781 C 8.101562 7.925781 8.152344 7.871094 11.398438 4.621094 C 14.554688 1.472656 14.691406 1.3125 14.691406 0.9375 C 14.691406 0.394531 14.324219 0.0273438 13.78125 0.0273438 C 13.40625 0.0273438 13.257812 0.152344 10.539062 2.871094 L 7.683594 5.726562 L 4.828125 2.871094 C 2.109375 0.152344 1.960938 0.0273438 1.585938 0.0273438 C 1.300781 0.0273438 1.113281 0.101562 0.9375 0.289062 Z M 0.9375 0.289062 " fill-opacity="1" fill-rule="nonzero"/></g></svg>

<svg xmlns="http://www.w3.org/2000/svg" width="21" height="12" viewBox="0 0 15.75 9"><defs><clipPath id="a"><path d="M.676 0h14.176v8H.676Zm0 0"/></clipPath></defs><g fill="#fff" clip-path="url(#a)"><path d="M.938.29C.75.464.676.655.676.937c0 .375.136.535 3.293 3.683 3.242 3.25 3.297 3.305 3.715 3.305s.468-.055 3.714-3.305c3.157-3.148 3.293-3.309 3.293-3.684 0-.542-.367-.91-.91-.91-.375 0-.523.125-3.242 2.844L7.684 5.727 4.828 2.87C2.11.152 1.961.027 1.586.027 1.3.027 1.113.102.937.29m0 0"/><path d="M.938.29C.75.464.676.655.676.937c0 .375.136.535 3.293 3.683 3.242 3.25 3.297 3.305 3.715 3.305s.468-.055 3.714-3.305c3.157-3.148 3.293-3.309 3.293-3.684 0-.542-.367-.91-.91-.91-.375 0-.523.125-3.242 2.844L7.684 5.727 4.828 2.87C2.11.152 1.961.027 1.586.027 1.3.027 1.113.102.937.29m0 0"/></g></svg>
